X:11516
T: Mazurka  vom 'Birchi'  CF (mz00989)
S:Hanny Christen. Bd.VI  Fribourg, Welschland, Wallis, Bern I. S.261 (mz00989) orig. C,F-Dur
S:Walliser (Volks-)Tänze. S.234-276
%%MIDI program 21
R:mazurka
O:Switzerland
M:3/4
L:1/8
K:C %%MIDI gchordon
"C"g>g a2e2 | "G7"g2f>ef2 | G>G B2A2 | "C"G>G c2E2 | g>g a2e2 | "G"g2 f>ef2 | "D7"d>d b2a2 | "G"g2g2z2 ::
"C"G2E3 c | "G7"B2D3E | F>E F2B2 | "C"ce Gc BA | G2E3c | "G7"B2D3E | F>E FG AB | "C"c2c2"_Fine"z2 :| [K:F]
"F"c>c c2d2 | c>f A4 | ccc2d2 | c>fA4 | "C7"c>B G2G2 | "F"B>A F2F2 | "C7"A>G D2G2 | "F"f>e c4 | 
c>cc2d2 | c>fA4 | A>A B2A2 | "Bb"G>FD4 | G>G F2D2 | "F"C>F A3B | "C7"A>G A>G A>G | "F"F2F2"_d.C.?"z2 |] 
W:
W: Anmerkung H.C.: Theodor Franzen 'Birchi Fiesch, August 1951

